dist/img/svg/nature.svg

<svg width="65" height="65" viewBox="0 0 65 65" fill="none" xmlns="http://www.w3.org/2000/svg">
<path d="M39.4495 27.6979C39.97 26.7094 42.0215 24.7173 42.0215 20.9473C42.0215 13.2647 34.8507 11.8202 34.4694 11.5503C34.4429 11.2712 34.3748 10.5529 34.3542 10.3339C33.7925 4.44247 28.9015 0 22.9785 0C17.1187 0 12.2427 4.44463 11.6364 10.3379L11.5119 11.5466C11.131 11.8149 3.80859 13.2347 3.80859 20.9473C3.80859 24.7128 5.86143 26.7122 6.38054 27.6979C6.01504 28.0811 0 31.1426 0 38.2129C0 44.5134 5.25218 49.5117 11.5527 49.5117H34.4043C40.7049 49.5117 45.8301 44.3865 45.8301 38.0859C45.8301 30.9739 39.8836 28.1533 39.4495 27.6979Z" fill="#0AB625"/>
<path d="M58.6195 27.6979C59.14 26.7094 61.1914 24.7173 61.1914 20.9473C61.1914 13.2647 53.8936 11.8202 53.5124 11.5503C53.4859 11.2712 53.4178 10.5529 53.3971 10.3339C52.8355 4.44247 47.9445 0 42.0215 0C39.4501 0 37.0963 0.892607 35.1814 2.35155C36.58 4.23655 37.5942 6.43589 38.0028 8.88177C44.7738 12.0971 45.8301 17.7077 45.8301 20.9473C45.8301 23.3909 45.1959 25.3268 44.4855 26.7737C47.9445 29.8978 49.6387 33.6656 49.6387 38.0859C49.6387 42.6575 47.5728 46.7171 44.3737 49.5117H53.4473C59.7478 49.5117 65 44.3865 65 38.0859C65 30.9739 59.0535 28.1533 58.6195 27.6979Z" fill="#0AB625"/>
<path d="M49.6387 61.1914V53.3203H42.0215V61.1914H26.7871V53.3203H19.1699V61.1914H11.5527V65H57.2559V61.1914H49.6387Z" fill="#0AB625"/>
</svg>

<svg width="65" height="65" fill="none" xmlns="http://www.w3.org/2000/svg"><path d="M39.45 27.698c.52-.989 2.572-2.98 2.572-6.75 0-7.683-7.171-9.128-7.553-9.398l-.115-1.216A11.377 11.377 0 0022.98 0c-5.86 0-10.736 4.445-11.343 10.338l-.124 1.209c-.381.268-7.703 1.688-7.703 9.4 0 3.766 2.052 5.765 2.572 6.75C6.015 28.082 0 31.144 0 38.214c0 6.3 5.252 11.299 11.553 11.299h22.851c6.3 0 11.426-5.126 11.426-11.426 0-7.112-5.946-9.933-6.38-10.388z" fill="#0AB625"/><path d="M58.62 27.698c.52-.989 2.571-2.98 2.571-6.75 0-7.683-7.297-9.128-7.679-9.398l-.115-1.216A11.377 11.377 0 0042.022 0c-2.572 0-4.926.893-6.84 2.352 1.398 1.885 2.412 4.084 2.82 6.53 6.772 3.215 7.828 8.826 7.828 12.065 0 2.444-.634 4.38-1.344 5.827 3.459 3.124 5.153 6.892 5.153 11.312 0 4.572-2.066 8.631-5.265 11.426h9.073c6.3 0 11.553-5.126 11.553-11.426 0-7.112-5.947-9.933-6.38-10.388zm-8.981 33.493v-7.87h-7.617v7.87H26.787v-7.87H19.17v7.87h-7.617V65h45.703v-3.809h-7.617z" fill="#0AB625"/></svg>
